packages/foundations/assets/icons/functional/images/notification/exclamation_mark_circle_28_filled.svg

<svg width="28" height="28" viewBox="0 0 28 28" fill="none" xmlns="http://www.w3.org/2000/svg">
<g clip-path="url(#clip0_2214_8074)">
<path fill-rule="evenodd" clip-rule="evenodd" d="M14 1.75C20.754 1.75 26.25 7.24614 26.25 14C26.25 20.7539 20.754 26.25 14 26.25C7.24614 26.25 1.75 20.7539 1.75 14C1.75 7.24614 7.24614 1.75 14 1.75ZM14 18.0742C13.3711 18.0742 12.8243 18.5938 12.8243 19.25C12.8243 19.8789 13.3711 20.4257 14 20.4257C14.6562 20.4257 15.1758 19.8789 15.1758 19.25C15.1758 18.5938 14.6562 18.0742 14 18.0742ZM14 7C13.5078 7 13.125 7.38202 13.125 7.875V15.5312C13.125 16.0513 13.5352 16.4062 14 16.4062C14.4922 16.4062 14.875 16.0242 14.875 15.5312V7.875C14.875 7.38202 14.4922 7 14 7Z" fill="#1A1C1F"/>
</g>
<defs>
<clipPath id="clip0_2214_8074">
<rect width="28" height="28" fill="white"/>
</clipPath>
</defs>
</svg>

<svg xmlns="http://www.w3.org/2000/svg" width="28" height="28" fill="none"><g clip-path="url(#a)"><path fill="#1A1C1F" fill-rule="evenodd" d="M14 1.75c6.754 0 12.25 5.496 12.25 12.25S20.754 26.25 14 26.25 1.75 20.754 1.75 14 7.246 1.75 14 1.75m0 16.324c-.629 0-1.176.52-1.176 1.176 0 .629.547 1.176 1.176 1.176.656 0 1.176-.547 1.176-1.176 0-.656-.52-1.176-1.176-1.176M14 7a.863.863 0 0 0-.875.875v7.656c0 .52.41.875.875.875a.863.863 0 0 0 .875-.875V7.875A.863.863 0 0 0 14 7" clip-rule="evenodd"/></g><defs><clipPath id="a"><path fill="#fff" d="M0 0h28v28H0z"/></clipPath></defs></svg>
